!!!!SEGMENT: pl-sa--5-a-i-5--003_anonim--mazur.krn
!!!cenid: 18xx:647
!!!COM: Anonim
!!!COM-rism: pe30004985
!!!CDT:
!!!CNT:
!!!OTL: Mazur
!!!PDT:
!!!AGN: Secular; Mazurka
!!!SMS-siglum: PL-SA
!!!SMS-shelfmark: 5/A I 5
!!!NIFC-rismID: 1001065399
!!!URL-scan: http://bc.bdsandomierz.pl/dlibra/publication/1269/edition/1237/content
!!!ONB-nifc: Str. 3
!!!SMS-variant:
!!!SMS-altvar:
**kern	**kern	**dynam
*part1	*part1	*part1
*staff2	*staff1	*
*I"Keyboard instrument	*	*
*>[A,A,B,B,C,C1,C,C2,D]	*>[A,A,B,B,C,C1,C,C2,D]	*>[A,A,B,B,C,C1,C,C2,D]
*clefF4	*clefG2	*
*k[f#c#]	*k[f#c#]	*
*D:	*D:	*
*M3/8	*M3/8	*
=1	=1	=1
*>A	*>A	*>A
!	!	!LO:DY:rj
16.D/LL	8f#/ 8d/ 8A/	f
32DD/JJk	.	.
4D\	4f#^>/ 4d/ 4A/	.
=2	=2	=2
*rep	*	*
!LO:TX:a:t=P:problem:brak "2" nad znakiem repetycji	!	!
16.D/LL	8a/ 8f#/ 8d/	.
32DD/JJk	.	.
4D\	4a^>/ 4f#/ 4d/	.
*Xrep	*	*
=3	=3	=3
16.D/LL	16.dd/LL 16.a/ 16.f#/	.
32DD/JJk	32dd/JJk 32a/ 32f#/	.
8D/L	8dd/L 8a/ 8f#/	.
8D/J 8DD/	8ff#/J 8dd/ 8a/	.
=4	=4	=4
8D/ 8DD/	8aa\ 8ff#\ 8dd\ 8a\	.
4D/ 4DD/	4ff#\ 4dd\ 4a\	.
=5	=5	=5
*	*ped	*
!LO:TX:a:t=P:problem:mixed beam	!	!
8AA/L 8AAA/	16.aa\LL	.
.	32ccc#\JJk	.
*	*Xped	*
8c#\ 8A\ 8E\	8.fff#\L	.
8c#\J 8A\ 8E\	.	.
.	16eee\Jk	.
=6	=6	=6
*	*rep	*
*tremolo	*	*
!	!LO:TX:a:t=P:problem:brak "2" nad znakiem repetycji	!
8c#\L 8A\ 8E\	16.aa\LL	.
.	32ccc#\JJk	.
8c#\ 8A\ 8E\	8.fff#\L	.
8c#\J 8A\ 8E\	.	.
.	16eee\Jk	.
*Xtremolo	*	*
*	*Xrep	*
=7	=7	=7
*tremolo	*	*
!	!LO:TUP:a	!
8d\L 8B\ 8G#X\ 8E\	24ddd\LL	.
.	24eee\	.
.	24ddd\JJ	.
8d\ 8B\ 8G#X\ 8E\	8bb\L	.
8d\J 8B\ 8G#X\ 8E\	16fff#\L	.
.	16eee\JJ	.
*Xtremolo	*	*
=8	=8	=8
!LO:N:vis=4	!	!
8c#\ 8A\	16.ccc#\LL	.
.	32bb\JJk	.
16c#\LL 16A\	4aa\	.
16Gn\	.	.
16F#\	.	.
16E\JJ	.	.
=9:|!	=9:|!	=9:|!
*>B	*>B	*>B
16.F#/LL	8a/ 8f#/ 8d/	.
!LO:SIC:s=32FF#/JJk:v	!	!
32GG/JJk	.	.
4F#\	4a^>/ 4f#/ 4d/	.
=10	=10	=10
16.F#/LL	8cc#/ 8a/ 8f#/	.
32FF#/JJk	.	.
4F#\	4cc#^>/ 4a/ 4f#/	.
!!LO:LB:g=original
=11	=11	=11
16.F#/LL	16.ff#/LL 16.cc#/ 16.a#X/ 16.f#/	.
32FF#/JJk	32ff#/JJk 32cc#/ 32a#/ 32f#/	.
8F#/L	8ff#/L 8cc#/ 8a#/ 8f#/	.
8F#/J 8FF#/	8cc#/J 8a#/ 8f#/	.
=12	=12	=12
*	*Xped	*
8B/ 8BB/	8dd\ 8b\ 8f#\	.
4F#/ 4FF#/	4cc#/ 4a#X/ 4f#/	.
=13	=13	=13
!LO:TX:t=P:problem:mixed beam	!LO:TUP:a:problem:kreska przypominająca klamrę łukową, numer	!
8C#/L 8CC#/	12ee\L	.
.	12ff#\	.
8e\J 8c#\ 8A\	.	.
.	12ee\J	.
.	8qa/	.
!	!LO:N:vis=8.	!
8A/ 8AA/	16.aa\LL	.
!	!LO:N:vis=16	!
.	32cc#\JJk	.
=14	=14	=14
8d\L 8D\	16.dd\LL	.
.	32ee\JJk	.
8f#\ 8d\ 8A\	4ff#\	.
8f#\J 8d\ 8A\	.	.
=15	=15	=15
!LO:TX:t=P:problem:mixed beam	!	!
!LO:TX:a:t=a	!	!
8G/L 8GG/	16.ff#\LL	.
.	32ee\K	.
8g\ 8e\ 8A\	16.bb\	.
.	32aa\K	.
8g\J 8e\ 8A\	16.b\	.
.	32cc#\JJk	.
=16	=16	=16
8f#\ 8d\	16ee\LL	.
.	16dd\JJ	.
8f#\ 8d\	4dd\	.
8r	.	.
*kcancel	*kcancel	*
=17:|!	=17:|!	=17:|!
*>C	*>C	*>C
*k[f#]	*k[f#]	*
*G:	*G:	*
*M3/8	*M3/8	*
!LO:TX:a:t=[segno]	!LO:TX:a:t=[segno]	!
!	!LO:TX:b:t=Trio	!LO:DY:rj
16.G\LL	16.b\LL	p
32A\JJk	32cc\JJk	.
8A#X\L	8cc#X\L	.
!LO:SIC:s=8B\J:v	!	!
8c\J	8dd\J	.
=18	=18	=18
16.c\LL	16.ee\LL	.
32B\JJk	32dd\JJk	.
8A#X\L	8cc#X\L	.
8B\J	8dd\J	.
=19	=19	=19
*tremolo	*	*
!	!	!LO:DY:rj
8c\L 8A\ 8D\	16ccn\LL	f
.	16a\JJ	.
8c\ 8A\ 8D\	8ff#'\L 8cc'\	.
8c\J 8A\ 8D\	8aa'\J 8ff#'\ 8cc'\	.
*Xtremolo	*	*
=20:|!	=20:|!	=20:|!
!!LO:TX:a:t=1 fois
*>C1	*>C1	*>C1
*tremolo	*	*
8B\L 8G\	(16gg\LL	.
.	16ee\JJ)	.
8B\ 8G\	8bb\L 8gg\ 8dd\	.
8B\J 8G\	8ddd\J 8bb\ 8gg\	.
*Xtremolo	*	*
=21	=21	=21
!!LO:TX:a:t=2 f[ois]
*>C2	*>C2	*>C2
!	!LO:TX:t=P:problem:karta uszkodzona	!LO:DY:rj
4B\ 4G\	8gg\ 8dd\ 8b\	p
.	4gg\ 4dd\ 4b\	.
8ryy	.	.
!!LO:LB:g=original
=22	=22	=22
*>D	*>D	*>D
16.B\LL 16.BB\	16.ff#\LL 16.dd\ 16.b\	.
32c\JJk 32C\	32ff#\JJk 32dd\ 32b\	.
*	*tremolo	*
!LO:TX:a:t=h	!LO:TX:a:t=P:problem:dwie kreseczki nad nutą	!
8B\L 8BB\	8ff#\L 8dd\ 8b\	.
8A\J 8AA\	8ff#\J 8dd\ 8b\	.
*	*Xtremolo	*
=23	=23	=23
16.G/LL 16.GG/	16.gg\LL 16.ee\ 16.b\	.
32F#/JJk 32FF#/	32gg\JJk 32ee\ 32b\	.
*	*tremolo	*
!	!LO:TX:a:t=P:problem:dwie kreseczki nad nutą	!
8G/L 8GG/	8gg\L 8ee\ 8b\	.
8E/J 8EE/	8gg\J 8ee\ 8b\	.
=24	=24	=24
!LO:TX:t=P:problem:mixed beam	!	!
8D#X/L 8DD#i/	16.ff#\LL	.
.	32b\JJk	.
8A\ 8F#\ 8BB\	8bb\L	.
8A\J 8F#\ 8BB\	8aa\J	.
=25	=25	=25
*tremolo	*	*
.	8qaa	.
8B\L 8G\	16.gg\LL	.
.	32ff#\JJk	.
8B\J 8G\	8gg\L	.
*Xtremolo	*	*
8ryy	8ee\J	.
=26	=26	=26
16.A\LL	16.ee\LL 16.cc#X\ 16.a\	.
32B\JJk	32ee\JJk 32cc#\ 32a\	.
!	!LO:TX:a:t=P:problem:dwie kreseczki nad nutą	!
8A\L	8ee\L 8cc#\ 8a\	.
8E\J	8ee\J 8cc#\ 8a\	.
=27	=27	=27
8qG/	.	.
16.F#\LL	16.ff#\LL 16.dd\ 16.a\	.
32E\JJk	32ff#\JJk 32dd\ 32a\	.
!	!LO:N:vis=8	!
!	!LO:TX:a:t=P:problem:dwie kreseczki nad nutą	!
8F#\L	4ff#\ 4dd\ 4a\	.
8D\J	.	.
=28	=28	=28
8C#X\L	16.ee\LL	.
.	32a\JJk	.
8G\ 8E\ 8C#\	8aa\L	.
8G\J 8E\ 8C#\	8gg\J	.
=29	=29	=29
8F#\ 8D\	16.ff#\LL	.
.	32ee\JJk	.
16.F#\ 16.D\	16.dd\	.
32D\KLL	(32dd'\KLL	.
16.E\	16.cc#X'\	.
32F#\JJk	32ccn'\JJk)	.
!LO:TX:a:t=[segno]	!LO:TX:a:t=[segno]	!
==	==	==
*-	*-	*-
!!!system-decoration: {(s1,s2)}
!!!RDF**kern: > = above
!!!RDF**kern: i = editorial accidental, bracket
!!!ENC: Zofia Niedbalska
!!!END: 2020-12-29
!!!ENC: Tomasz Grochalski
!!!END: 2020-06-18
